assets/images/japan/icon-nft.svg

<svg width="100" height="100" viewBox="0 0 100 100" fill="none" xmlns="http://www.w3.org/2000/svg">
<path fill-rule="evenodd" clip-rule="evenodd" d="M68.893 59.6426C70.0739 60.2896 71.4089 60.6285 72.7542 60.6285L72.7439 60.6182C74.0789 60.6182 75.4138 60.2793 76.5948 59.6426L81.298 57.0446C81.9039 56.7057 82.1093 55.9458 81.7704 55.3502C81.5445 54.9702 81.1337 54.7238 80.6819 54.7238C80.4662 54.7238 80.2608 54.7751 80.0657 54.8881L75.3522 57.4964C74.5307 57.938 73.5962 58.1742 72.672 58.1742C71.7478 58.1742 70.8133 57.9482 69.9918 57.4964L51.1584 47.0322C49.4434 46.0259 48.3857 44.1569 48.3857 42.175V18.4535C48.4062 16.4613 49.4948 14.6026 51.2405 13.6168L70.0739 3.14233C70.8955 2.70076 71.8299 2.46457 72.7542 2.46457C73.6784 2.46457 74.6129 2.69049 75.4344 3.14233L94.2473 13.586C96.0752 14.5307 97.2356 16.3894 97.2869 18.4535V42.1853C97.2766 44.1877 96.1779 46.0464 94.4321 47.0425L86.4531 51.4582C85.8677 51.7868 85.6418 52.5262 85.9602 53.1115C86.1758 53.5017 86.5866 53.7482 87.0384 53.7482C87.2438 53.7482 87.4389 53.6969 87.6237 53.5942L95.6131 49.1579C98.1393 47.7408 99.7104 45.0606 99.7309 42.175V18.4535C99.7309 15.5473 98.1495 12.8671 95.6028 11.4705L76.7796 0.985829C75.5987 0.338879 74.2534 0 72.9185 0C71.5835 0 70.2485 0.338879 69.0676 0.97556L50.0596 11.4705C47.5334 12.8877 45.9622 15.5679 45.9417 18.4535V42.1647C45.9519 45.0709 47.5334 47.7511 50.0698 49.1682L68.893 59.6426ZM10 95.3584C10 97.9154 12.0743 100 14.6416 100H24.9107C25.5884 100 26.1327 99.4557 26.1327 98.778C26.1327 98.1002 25.5884 97.556 24.9107 97.556H14.6416C13.4299 97.556 12.444 96.5701 12.444 95.3584V20.0452C12.444 18.8334 13.4299 17.8476 14.6416 17.8476H40.4375C41.1152 17.8476 41.6595 17.3033 41.6595 16.6256C41.6595 15.9478 41.1152 15.4036 40.4375 15.4036H14.6416C12.0846 15.4036 10 17.4779 10 20.0452V95.3584ZM30.5381 98.778C30.5381 99.4557 31.0824 100 31.7601 100H69.4167C71.9737 100 74.0583 97.9256 74.0583 95.3584V66.2661C74.0583 65.5884 73.5141 65.0441 72.8363 65.0441C72.1586 65.0441 71.6143 65.5884 71.6143 66.2661V95.3584C71.6143 96.5701 70.6285 97.5559 69.4167 97.5559H31.7601C31.0824 97.5559 30.5381 98.1002 30.5381 98.778ZM42.0494 91.4459C41.8748 91.4459 41.7105 91.4151 41.5565 91.3432L36.3603 89.0532L31.1847 91.3535C31.041 91.4151 30.8767 91.4459 30.7124 91.4459C30.548 91.4459 30.3837 91.4151 30.24 91.3535L24.9514 89.0224L18.6565 90.8914C18.5435 90.9222 18.4203 90.9427 18.3073 90.9427C18.2046 90.9427 18.0917 90.9325 17.989 90.9017C17.342 90.7271 16.9518 90.0493 17.1264 89.4024L19.324 81.1974L16.921 73.7318C16.8389 73.4854 16.8389 73.2184 16.921 72.9822L19.3137 65.5268L16.921 58.1023C16.8389 57.8559 16.8389 57.5889 16.921 57.3527L19.3548 49.8974L16.9621 42.4523C16.8799 42.2058 16.8799 41.9388 16.9621 41.7027L19.3753 34.2165L17.1777 26.0218C17.1161 25.7959 17.1161 25.57 17.1777 25.3543C17.3318 24.8409 17.8144 24.4815 18.3484 24.4815C18.4614 24.4815 18.5846 24.502 18.6976 24.5328L24.9617 26.4018L30.1578 24.1529C30.3119 24.081 30.4762 24.0502 30.6507 24.0502C30.8253 24.0502 30.9896 24.081 31.1437 24.1529L36.3398 26.4428L39.821 24.9025C39.975 24.8409 40.1393 24.7998 40.3036 24.7998C40.7966 24.7998 41.2381 25.0873 41.4332 25.5392C41.5667 25.837 41.5667 26.1759 41.4538 26.4839C41.3408 26.792 41.1046 27.0282 40.7966 27.1617L36.8224 28.8766C36.6684 28.9485 36.5041 28.9793 36.3295 28.9793C36.1549 28.9793 35.9906 28.9485 35.8366 28.8766L30.6405 26.5866L25.4649 28.8869C25.3622 28.9177 25.2184 28.9485 25.0849 28.9485C24.9514 28.9485 24.8076 28.928 24.6742 28.8766L20.0325 27.5108L21.768 33.9495C21.8399 34.1857 21.8399 34.4322 21.768 34.6581L19.3753 42.0929L21.768 49.5379C21.8502 49.7844 21.8502 50.0514 21.768 50.2876L19.3753 57.7429L21.768 65.188C21.8502 65.4344 21.8502 65.7014 21.768 65.9376L20.7206 69.1826L21.5318 69.6755L32.6224 58.585C32.8586 58.3488 33.1667 58.2256 33.4953 58.2256C33.8239 58.2256 34.1319 58.3591 34.3681 58.585L64.2511 88.3652L62.4232 81.5774C62.3513 81.3412 62.3513 81.105 62.4232 80.8791L64.8159 73.3621L62.3718 65.8863C62.2897 65.6398 62.2897 65.3728 62.3718 65.1366L63.0599 63.0212C63.2344 62.5077 63.7068 62.1689 64.2511 62.1689C64.3846 62.1689 64.5181 62.1894 64.6413 62.2305C64.9596 62.3332 65.2164 62.5591 65.3704 62.8569C65.5244 63.1547 65.545 63.4936 65.4423 63.8119L64.8775 65.5371L67.2702 72.9822C67.3523 73.2286 67.3523 73.4854 67.2702 73.7113L64.8056 81.2693L67.0032 89.4229C67.0648 89.6386 67.0545 89.8748 67.0032 90.0904C66.8491 90.6039 66.3665 90.9633 65.8325 90.9633C65.7195 90.9633 65.5963 90.9427 65.4834 90.9119L59.2192 89.043L53.9204 91.3741C53.7664 91.4357 53.6021 91.4665 53.4275 91.4665C53.2632 91.4665 53.0886 91.4254 52.9243 91.3638L47.7487 89.0738L42.5731 91.3741C42.4191 91.4357 42.2548 91.4767 42.0905 91.4767L42.0494 91.4459ZM47.7179 86.486C47.8925 86.486 48.0568 86.5168 48.2108 86.5887L53.407 88.8787L58.829 86.486L33.485 61.1317L19.8682 74.8717L21.7885 80.838C21.8502 81.0537 21.8502 81.3001 21.7885 81.526L20.0531 87.9955L24.6844 86.6195C24.8487 86.5579 24.9822 86.5373 25.126 86.5373C25.2698 86.5373 25.4033 86.5579 25.5368 86.6092L30.6815 88.8787L35.8571 86.5989C36.0112 86.5271 36.1755 86.4963 36.3501 86.4963C36.5246 86.4963 36.6889 86.5271 36.843 86.5989L42.0391 88.8889L47.2352 86.5989C47.3893 86.5271 47.5536 86.4963 47.7179 86.4963V86.486ZM64.2819 38.3858C63.8608 38.3858 63.4706 38.1701 63.2447 37.8107L55.2451 27.1411V37.1637C55.2451 37.8415 54.7009 38.3858 54.0231 38.3858C53.3453 38.3858 52.8011 37.8415 52.8011 37.1637V23.4751C52.8011 22.7973 53.3453 22.2531 54.0231 22.2531C54.4544 22.2531 54.8344 22.4687 55.0603 22.8281L63.0599 33.4977V23.4751C63.0599 22.7973 63.6041 22.2531 64.2819 22.2531C64.9596 22.2531 65.5039 22.7973 65.5039 23.4751V37.1637C65.5039 37.8415 64.9596 38.3858 64.2819 38.3858ZM69.8994 37.1637C69.8994 37.8415 70.4437 38.3858 71.1215 38.3858C71.7992 38.3858 72.3435 37.8415 72.3435 37.1637V31.5363H77.9709C78.6487 31.5363 79.1929 30.992 79.1929 30.3143C79.1929 29.6365 78.6487 29.0923 77.9709 29.0923H72.3435V24.6971H77.9709C78.6487 24.6971 79.1929 24.1528 79.1929 23.4751C79.1929 22.7973 78.6487 22.2531 77.9709 22.2531H71.1215C70.4437 22.2531 69.8994 22.7973 69.8994 23.4751V37.1637ZM88.2398 38.3858C87.5621 38.3858 87.0178 37.8415 87.0178 37.1637V24.6971H84.8202C84.1425 24.6971 83.5982 24.1528 83.5982 23.4751C83.5982 22.7973 84.1425 22.2531 84.8202 22.2531H91.6697C92.3474 22.2531 92.8917 22.7973 92.8917 23.4751C92.8917 24.1528 92.3474 24.6971 91.6697 24.6971H89.4721V37.1637C89.4721 37.8415 88.9278 38.3858 88.2501 38.3858H88.2398ZM27.1184 45.7178C27.1184 49.2195 29.9732 52.0743 33.475 52.0743C36.9767 52.0743 39.8315 49.2195 39.8315 45.7178C39.8315 42.216 36.9767 39.3612 33.475 39.3612C29.9732 39.3612 27.1184 42.216 27.1184 45.7178ZM29.5625 45.7178C29.5625 43.5613 31.3185 41.8053 33.475 41.8053C35.6315 41.8053 37.3875 43.5613 37.3875 45.7178C37.3875 47.8743 35.6315 49.6303 33.475 49.6303C31.3185 49.6303 29.5625 47.8743 29.5625 45.7178Z" fill="url(#paint0_linear_2323_1949)"/>
<defs>
<linearGradient id="paint0_linear_2323_1949" x1="12.2156" y1="-6.42929" x2="96.2121" y2="83.3902" gradientUnits="userSpaceOnUse">
<stop stop-color="#E6007A"/>
<stop offset="0.21" stop-color="#703AC2"/>
<stop offset="0.46" stop-color="#0070EB"/>
<stop offset="0.77" stop-color="#0297FB"/>
<stop offset="1" stop-color="#0AE2FF"/>
</linearGradient>
</defs>
</svg>

<svg xmlns="http://www.w3.org/2000/svg" width="100" height="100" fill="none"><path fill="url(#a)" fill-rule="evenodd" d="M68.893 59.643a8.055 8.055 0 0 0 3.861.986l-.01-.01c1.335 0 2.67-.34 3.85-.976l4.704-2.598a1.237 1.237 0 0 0 .472-1.695 1.272 1.272 0 0 0-1.088-.626c-.216 0-.421.051-.616.164l-4.714 2.608a5.705 5.705 0 0 1-2.68.678 5.587 5.587 0 0 1-2.68-.678L51.158 47.032a5.654 5.654 0 0 1-2.772-4.857V18.454a5.639 5.639 0 0 1 2.854-4.837L70.075 3.142a5.706 5.706 0 0 1 2.68-.677c.924 0 1.859.225 2.68.677l18.813 10.444a5.621 5.621 0 0 1 3.04 4.867v23.732a5.65 5.65 0 0 1-2.855 4.857l-7.979 4.416c-.585.329-.811 1.068-.493 1.654.216.39.627.636 1.078.636.206 0 .4-.051.586-.154l7.99-4.436a8.087 8.087 0 0 0 4.117-6.983V18.454a7.964 7.964 0 0 0-4.128-6.984L76.78.986A8.085 8.085 0 0 0 72.918 0c-1.335 0-2.67.339-3.85.976L50.06 11.47a8.087 8.087 0 0 0-4.118 6.982v23.712a8.062 8.062 0 0 0 4.128 7.003l18.823 10.475ZM10 95.358A4.643 4.643 0 0 0 14.642 100H24.91c.677 0 1.222-.544 1.222-1.222 0-.678-.545-1.222-1.222-1.222H14.64a2.2 2.2 0 0 1-2.197-2.198V20.045a2.2 2.2 0 0 1 2.198-2.197h25.796c.677 0 1.221-.545 1.221-1.222 0-.678-.544-1.222-1.221-1.222H14.642A4.643 4.643 0 0 0 10 20.045v75.313Zm20.538 3.42c0 .678.544 1.222 1.222 1.222h37.657a4.643 4.643 0 0 0 4.641-4.642V66.266c0-.678-.544-1.222-1.222-1.222-.677 0-1.222.544-1.222 1.222v29.092a2.2 2.2 0 0 1-2.197 2.198H31.76c-.678 0-1.222.544-1.222 1.222Zm11.511-7.332c-.174 0-.338-.03-.492-.103l-5.197-2.29-5.175 2.3a1.21 1.21 0 0 1-.473.093 1.21 1.21 0 0 1-.472-.093l-5.289-2.33-6.294 1.868c-.113.031-.237.052-.35.052a1.13 1.13 0 0 1-.318-.041 1.23 1.23 0 0 1-.863-1.5l2.198-8.205-2.403-7.465a1.171 1.171 0 0 1 0-.75l2.393-7.455-2.393-7.425a1.171 1.171 0 0 1 0-.75l2.434-7.455-2.393-7.445a1.17 1.17 0 0 1 0-.75l2.413-7.485-2.197-8.195a1.228 1.228 0 0 1 0-.668 1.233 1.233 0 0 1 1.17-.872c.113 0 .237.02.35.05l6.264 1.87 5.196-2.25c.154-.071.318-.102.493-.102.174 0 .339.031.493.103l5.196 2.29 3.481-1.54c.154-.062.318-.103.483-.103.493 0 .934.287 1.13.74.133.297.133.636.02.944-.113.308-.35.544-.657.678l-3.975 1.715a1.147 1.147 0 0 1-.492.102c-.175 0-.34-.03-.493-.102l-5.197-2.29-5.175 2.3c-.103.03-.247.061-.38.061-.134 0-.277-.02-.41-.071l-4.643-1.366 1.736 6.439a1.19 1.19 0 0 1 0 .708l-2.393 7.435 2.393 7.445a1.17 1.17 0 0 1 0 .75l-2.393 7.455 2.393 7.445a1.17 1.17 0 0 1 0 .75l-1.047 3.245.81.492 11.091-11.09c.237-.236.545-.36.873-.36.329 0 .637.134.873.36l29.883 29.78-1.828-6.788a1.157 1.157 0 0 1 0-.698l2.393-7.517-2.444-7.476a1.172 1.172 0 0 1 0-.75l.688-2.115a1.249 1.249 0 0 1 1.191-.852 1.255 1.255 0 0 1 1.191 1.643l-.565 1.725 2.393 7.445a1.11 1.11 0 0 1 0 .73l-2.464 7.557 2.197 8.154c.062.216.052.452 0 .667a1.233 1.233 0 0 1-1.17.873c-.114 0-.237-.02-.35-.051l-6.264-1.869-5.299 2.331a1.315 1.315 0 0 1-.996-.01l-5.175-2.29-5.176 2.3a1.312 1.312 0 0 1-.483.103l-.04-.031Zm5.669-4.96c.174 0 .339.03.493.103l5.196 2.29 5.422-2.393-25.344-25.354-13.617 13.74 1.92 5.966c.062.216.062.462 0 .688l-1.735 6.47 4.631-1.376c.165-.062.298-.083.442-.083.144 0 .277.02.41.072l5.145 2.27 5.176-2.28c.154-.072.319-.103.493-.103.175 0 .339.031.493.103l5.196 2.29 5.196-2.29c.154-.072.319-.103.483-.103v-.01Zm16.564-48.1c-.421 0-.811-.216-1.037-.575l-8-10.67v10.023c0 .678-.544 1.222-1.222 1.222a1.218 1.218 0 0 1-1.222-1.222V23.475c0-.678.544-1.222 1.222-1.222.431 0 .811.216 1.037.575l8 10.67V23.475c0-.678.544-1.222 1.222-1.222.678 0 1.222.544 1.222 1.222v13.689c0 .678-.544 1.222-1.222 1.222Zm5.617-1.222c0 .678.545 1.222 1.222 1.222.678 0 1.223-.544 1.223-1.222v-5.628h5.627c.678 0 1.222-.544 1.222-1.222 0-.677-.544-1.222-1.222-1.222h-5.627v-4.395h5.627c.678 0 1.222-.544 1.222-1.222 0-.678-.544-1.222-1.222-1.222h-6.85c-.677 0-1.222.544-1.222 1.222v13.689Zm18.34 1.222a1.218 1.218 0 0 1-1.221-1.222V24.697H84.82a1.218 1.218 0 0 1-1.222-1.222c0-.678.544-1.222 1.222-1.222h6.85c.677 0 1.222.544 1.222 1.222 0 .678-.545 1.222-1.222 1.222h-2.198v12.467c0 .678-.544 1.222-1.222 1.222h-.01Zm-61.12 7.332c0 3.501 2.854 6.356 6.356 6.356s6.356-2.855 6.356-6.356c0-3.502-2.854-6.357-6.356-6.357s-6.357 2.855-6.357 6.357Zm2.444 0a3.918 3.918 0 0 1 3.912-3.913 3.918 3.918 0 0 1 3.913 3.913 3.918 3.918 0 0 1-3.913 3.912 3.918 3.918 0 0 1-3.913-3.912Z" clip-rule="evenodd"/><defs><linearGradient id="a" x1="12.216" x2="96.212" y1="-6.429" y2="83.39" gradientUnits="userSpaceOnUse"><stop stop-color="#E6007A"/><stop offset=".21" stop-color="#703AC2"/><stop offset=".46" stop-color="#0070EB"/><stop offset=".77" stop-color="#0297FB"/><stop offset="1" stop-color="#0AE2FF"/></linearGradient></defs></svg>
